svg/300/outlined/texture_minus-fill.svg

<svg xmlns="http://www.w3.org/2000/svg" width="48" height="48" viewBox="0 -960 960 960"><path d="M171.385-140.001q-13.769-6.462-19.653-13.462-5.884-7-11.731-20.768l647.998-645.768q11.154 4.231 19.769 12.846 8.615 8.616 12.231 20.384L171.385-140.001Zm243.155 0 86.997-86.998v86.998H414.54Zm160.075-73.078v-45.384h285.384v45.384H574.615ZM140.001-414.54v-65.229l340.23-340.23h65.229L140.001-414.54Zm466.078 82.999 213.92-213.919v65.229l-148.691 148.69h-65.229ZM140.001-720.693v-41.613q0-23.616 17.039-40.654 17.038-17.039 40.654-17.039h41.613l-99.306 99.306Z"/></svg>

<svg xmlns="http://www.w3.org/2000/svg" width="48" height="48" viewBox="0 -960 960 960"><path d="M171.39-140q-13.77-6.46-19.66-13.46-5.88-7-11.73-20.77L788-820q11.15 4.23 19.77 12.85 8.61 8.61 12.23 20.38L171.39-140Zm243.15 0 87-87v87h-87Zm160.07-73.08v-45.38H860v45.38H574.61ZM140-414.54v-65.23L480.23-820h65.23L140-414.54Zm466.08 83L820-545.46v65.23L671.31-331.54h-65.23ZM140-720.69v-41.62q0-23.61 17.04-40.65T197.69-820h41.62L140-720.69Z"/></svg>
